X:1
T:En Fembøring under Seil
T:En Fembøring under Seil
T:David Monrad Johansen
T:Jonas Lie
T:Norsk Musikkforlag N.M.O. 7089
T:Norsk Musikkforlag N.M.O. 7089
T:Norsk Musikkforlag N.M.O. 7089
T:Norsk Musikkforlag N.M.O. 7089
T:Norsk Musikkforlag N.M.O. 7089
C:David Monrad Johansen
Z:Jonas Lie
Z:Norsk Musikkforlag N.M.O. 7089
%%score [ 1 2 3 4 ]
L:1/8
Q:1/4=176
M:3/4
K:A
V:1 treble-8 nm="Tenor 1" snm="T1."
V:2 treble-8 nm="Tenor 2" snm="T2."
V:3 bass nm="Baryton" snm="Bar."
V:4 bass nm="Bass" snm="B."
V:1
"^Poco vivace"!f! E2 | A2 AB cd | e4 ce | d2 c2 B2 | (c2 A2) ce | d2 c2 B2 | (cB) (AB) ce | %7
w: En|Fem- bø- ring un- der|seil er et|ly- ste- ligt|syn * når den|va- sker i|sjø- * en * for en|
 (^dc) (de fd) | e4 ee | d2 c2 B2 | c2 B2 A2 | e6- |"^rit." e6- | e6 | %14
w: "tre * klørs" * * *|vind og en|hø- veds- mand|god ved sit|sty-|||
 e2 !fermata!z2"^leggiero" .e.e ||[M:4/4][Q:1/4=132] .e2 .e.e .e2 .e.e | %16
w: re; Ja når|od- der og næs fly- ve|
 .e2 .ee f2"^sosten." !tenuto!f!tenuto!f |[Q:1/4=120] !tenuto!=g2 ee e2 gg | %18
w: pil- snart for- bi, må sig|glæ- de den fi- sker som|
 (=fe)d=c B2"^rit. e dim." ff | (ed)=cc (Bd)cB | A8- | A4 !fermata!A2 z2!fine! || %22
w: sid- * der der- i, fast at|sjø- * skvæt- tet væ- * der hans|hy-|* re.|
[K:C][M:3/4][Q:1/4=144] z6 | z4"^Meno vivace"!p! E2 |"^poco espress." A2 AB cd | e2 c2 e2 | %26
w: |En|Fem- bø- ring er på|ha- vet så|
 d2 c2 B2 | (c2 A2) ce | d2 c2 B2 | c2 A2 (ce) | (^d2 B2) (d^f) | e4 ee | d2 c2 B2 | c2 B2 ^G2 | %34
w: li- det et|skal, * med- ens|bøl- ger går|om den som *|bjerg * og *|dal og den|skal sig i|u- vei- ret|
 A6 |"^rit." A4 z2 | z6 | z4[Q:1/4=88]"^Sostenuto" ee |[M:4/4] e2 ee e2 ee | ^ff =f2 e2 ee | %40
w: kla-|re;||Ja der|ro- es i sjø- en med|mø- de mangt tag, og der|
 e2 ee e2 ee | ^f2 =ff e2"^espress." ff | (ed)cc (Bd)cB |"^rit." A8- | %44
w: sei- les til ri- pen så|man- gen en dag, hvor det|går * gjen- nem tyng- * sel og|fa-|
 A4 !breath!!fermata!A2[Q:1/4=96]"^Pomposo" GG | !>!c2 CC C2 ee | (dc)BA (GA)BG | !>!c2 CC C2 ee | %48
w: * re. Men en|Jægt un- der seil er et|fry- * de- lig syn * når den|stæv- ner til midt- ma- sters|
 (dc)BA (GA)BG | (AB)cA dc(BA) | G4 G2 GG | (AB)cA (Bc)dB | (cd)ec d2 GG | (Bc)dB (cd)ec | %54
w: la- * det til by'n * og med|frug- * ten af vin- te- rens *|da- ge, når den|ank- * ren- de flag- * ger der|for- * an sit hjem, for- di|al- * ting er kom- * met så|
 (de)fd"^sosten." g2 gf | (ed)cB (Ad)BG |"^dim. e rit." c4 c2 z2 | z8 | z8!D.C.! |] %59
w: vel- * ber- get frem og den|vel- * stand nu brin- * ger til|ba- ge.|||
V:2
 E2 |!<(! A2 AB (AB)!<)! | (cd) cB Ac | B2 A2 G2 | (AG) (FG) (Ac) | (B2 A2) GG | AG FG (Ac) | %7
w: En|Fem- bø- ring en *|Fem- * bø- ring un- der|seil er et|ly- * ste- * ligt *|syn * når den|va- * sker * i *|
 (BA) (Bc) ^dB | B4 A2 | B2 A2 G2 | A2 G2 F2 | G2 A2 B2 | A6- |!>(! A6!>)! | G2 z2!p! .e.e || %15
w: sjø- * en * for en|"tre- klørs"|vind og en|hø- veds- mand|god ved sit|sty-||re; * *|
[M:4/4] .^d2 .B.B .B2 .d.d | (cA)!<(!ce ^d2 !tenuto!d!tenuto!d!<)! |!ff! !tenuto!e2 =cc c2 ee | %18
w: |||
 (d=c)BA G2 GG | (AB)AA (GB)AG | =F8- | (F2 D2) !fermata!E2 z2 ||[K:C][M:3/4] z6 | z4 E2 | %24
w: ||||||
 A2!<(! AB AB!<)! | c2 A2 c2 | B2 A2 ^G2 | (A2 F2) Ac | B2 A2 ^G2 | A2 F2 (Ac) | (B2 ^F2) (B^d) | %31
w: |||||||
 B4 cc | B2 A2 ^G2 | A2 ^G2 E2 | F6 | E4 z2 | z6 | z4!mp! e"^espress."e |[M:4/4] d2 BB B2 dd | %39
w: ||||||||
 cB(Ac) B2 ee | d2 BB B2 dd | (cB)Ac B2!mf! dd | (cB)AA (^GB)AG | F8- | %44
w: |||||
 F4 !breath!!fermata!E2!f! GG |!<(! !>!c2 CC C2!ff! cc!<)! |!>(! (BA)GF (GA)BG!>)! | %47
w: |||
 !>!c2 CC C2 cc | (BA)GF (GA)BG | (AB)cA dc(BA) | G4!f! G2 G^F |!<(! (FG)AF (GA)BG!<)! | %52
w: |||||
!<(! (AB)cA B2 GG!<)! |!<(! (GA)BG (AB)cA!<)! |!<(! (Bc)dB!ff! d2 dd!<)! | (cB)AG F2 FF | %56
w: ||||
!>(! (GBAF) G2 z2!>)! | z8 | z8 |] %59
w: |||
V:3
!f! E,2 | A,2 E,2 E,2 | (A,B,) A,G, F,E, | A,4 E,E, | A,2 (A,G,) (F,E,) | A,4 E,E, | A,2 E,2 E,2 | %7
w: En|Fem- bø- ring,|Fem- * bø- ring un- der|seil er et|ly- ste- * ligt *|||
 A,2 G,2 A,A, | (A,B,) (A,G, F,E,) | A,4 E,E, | E,2 D,2 C,2 | B,,2 C,2 ^D,2 | (E,6 | B,6) | %14
w: |"tre- * klørs" * * *|vind og en|||||
 B,2 z2 .E,.E, ||[M:4/4] .B,2 .G,.G, .G,2 .B,.B, | (A,F,)A,C B,2 !tenuto!^D!tenuto!D | %17
w: * Ja når|od- der og næs fly- ve|pil- * snart for- bi, må sig|
 (ED)=CB, (A,=G,)=F,E, | (=F,=G,)A,G, (F,E,)D,D, |!>(! (E,=F,)=G,G, F,_A,!f!"^ten."!>!G,!>!F,!>)! | %20
w: glæ- * de den fi- * sker som|sid- * der der- i, * fast at|sjø- * skvæt- tet væ- der, fast at|
"^rit. e dim." E,D,E,E,!>(! (D,=F,)E,D,!>)! | (D,2 B,,2) !breath!!fermata!=C,2!p! E,2 || %22
w: sjø- * skvæt- tet væ- * der hans|hy- * re. En|
[K:C][M:3/4]"^poco espress." F,2 E,2 E,2 | (F,2 E,2) E,2 | F,2 E,2 E,2 | F,2 E,2 E,2 | %26
w: Fem- bø- ring|er * på|ha- vet så|li- det et|
 F,2 E,2 E,2 | F,2 E,2 E,2 | F,2 E,2 E,2 | (F,2 E,2) E,2 | ^F,2 E,2 E,2 | ^G,2 E,2 E,2 | %32
w: skal, me- dens|bøl- ger går|om den som|bjerg * og|dal og den|skal sig i|
 F,2 E,2 D,2 | (E,2 D,2 B,,2 | D,6 | C,4) z2 | z6 | z4 E,E, |[M:4/4] B,2 ^G,G, G,2 B,B, | %39
w: u- vei- ret|kla- * *||re;||Ja der|ro- es i sjø- en med|
 A,^G,(F,A,) G,2 E,E, | B,2 ^G,G, G,2 B,B, | (A,^G,)F,A, G,2 A,A, | (A,2 E,2 D,2)!f! !>!D,!>!D, | %43
w: mø- de mangt * tag, og der|sei- les til ri- pen så|man- * gen en dag, hvor det|går, * * hvor det|
 (!>!E,D,)E,E, (D,"^rit."F,)E,D, | (D,2 B,,2) !breath!!fermata!C,2 G,G, | !>!C2 C,C, C,2 G,G, | %46
w: går * gjen- nem tyng- * sel og|fa- * re. Men en|Jægt un- der seil er et|
 (G,E,)D,E, (F,G,)A,B, | !>!C2 C,C, C,2 G,G, | (G,E,)D,E, (F,G,)A,B, | (A,G,)^F,G, A,F,(G,A,) | %50
w: fry- * de- lig syn * når den|stæv- ner til midt- ma- sters|la- * det til by'n * og med|frug- * ten af vin- te- rens *|
 G,4 G,2 G,G, | (A,F,)G,A, (B,G,)A,B, | (CA,)B,C (DC)B,A, | (B,G,)A,B, (CA,)B,C | %54
w: da- ge, når den|ank- * ren- de flag- * ger der|for- * an sit hjem, * for- di|al- * ting er kom- * met så|
 (DB,)CD (CB,)CB, | (B,A,)G,F, E,2 D,D, | (E,G,F,D,) E,2 z2 | z8 | z8 |] %59
w: vel- * ber- get frem * og den|vel- * stand nu brin- ger til|ba- * * * ge.|||
V:4
 E,2 | A,2 A,,2 A,,2 | A,2 A,,2 A,,2 | (E,F,) E,D, C,B,, | E,4 C,A,, | (E,F,) (E,D,) (C,B,,) | %6
w: ||Fem- bø- ring,|Fem- * bø- ring un- der|seil er et|ly- * ste- * ligt *|
 E,4 A,,A,, | (B,,C,) (^D,E,) (F,G,) | (A,G,) (F,E,) D,C, | (B,,2 C,2) D,2 | E,4 E,E, | %11
w: syn når den|va- * sker * i *|sjø- * en * for en|"tre- * klørs"|vind og en|
 (E,^D,) (E,F,) (G,A,) | (B,^A,) (B,C) (DB,) | E,6 | E,2 z2 .E,.E, || %15
w: hø- * veds- * mand *|god * ved * sit *|sty-|re; * *|
[M:4/4] .E,2 .E,E, .E,2 .E,.E, | .E,2 E,E, E,2 !tenuto!B,!tenuto!B, | (=CB,)A,=G, (=F,E,)D,=C, | %18
w: |||
 (D,E,)=F,E, (D,=C,)B,,B,, | (=C,D,)E,E, D,=F,"^ten."!>!E,!>!D, | E,D,=C,C, (B,,D,)C,B,, | %21
w: |||
 A,,4 !breath!!fermata!A,,2 E,2 ||[K:C][M:3/4] A,,6 | A,4 A,2 | (A,,6 | A,4) A,2 | (A,,6 | %27
w: * * En|Fem-|bø- ring|er|* på|ha-|
 A,4) A,2 | A,,6 | A,4 A,2 | (A,,6 | A,4) A,A, | A,,6 | A,4 E,2 |!<(! (A,,^G,, A,,B,, C,D,!<)! | %35
w: vet så|li-|det et|skal,|* og den|skal|sig i|u- * * * * *|
"^rit."!>(! E,D,) (E,^F,) (^G,E,)!>)! |!p! A,6 | A,4 E,E, |[M:4/4] E,2 E,E, E,2 E,E, | %39
w: * * vei- * ret *|kla-|re; * *||
 ^D,D, =D,2 D,2 E,E, | E,2 E,E, E,2 E,E, | ^D,2 =D,D, D,2 D,D, | A,,6 !>!F,!>!F, | %43
w: ||||
 (!>!E,D,)C,C, (B,,D,)C,B,, | A,,4 !breath!!fermata!A,,2 G,G, | !>!C2 C,C, C,2 G,G, | %46
w: |||
 (G,,A,,)B,,C, (D,E,)F,G, | !>!C2 C,C, C,2 G,G, | (G,,A,,)B,,C, (D,E,)F,G, | %49
w: |||
 (^F,E,)D,E, F,D,(E,F,) | (G,^F,E,D,) (E,F,)G,F, | (F,D,)E,F, (G,E,)F,G, | (A,F,)G,A, (B,A,)G,F, | %53
w: ||||
 (G,E,)F,G, (A,F,)G,A, | (B,G,)A,B, (CB,)A,G, | (G,F,)E,D, C,2 G,,B,, | C,4 C,2 G,F, | %57
w: |||* * Og den|
"^dim. e rit." (E,D,)C,B,, (A,,F,)E,D, | (G,2 F,2) !fermata!E,2 z2 |] %59
w: vel- * stand nu brin- * ger til|ba- * ge.|

